32x32/apps/com.rafaelmardojai.Blanket.svg

<svg xmlns="http://www.w3.org/2000/svg" width="32" height="32" version="1">
 <path style="fill:#1a5fb4" d="m 5.5000876,1.9999999 c -1.9389839,0 -3.4999709,1.560987 -3.4999709,3.4999708 V 15.999883 24.74981 28 H 4 v -3 h 2 v 3 H 8 V 25 H 9.0000585 V 15.999883 5.4999707 c 0,-1.9389838 -1.560987,-3.4999708 -3.4999709,-3.4999708 z"/>
 <path style="fill:#3584e4" d="m 19.230743,1.9999999 v 0.013679 c 0.0892,-0.00676 0.178245,-0.013679 0.269228,-0.013679 z m 0.269228,0 c 1.938984,0 3.499971,1.560987 3.499971,3.4999708 0,8.1665983 0,-4.66662775 0,3.4999708 h 6.999941 c 0,-8.16659855 0,4.6666275 0,-3.4999708 0,-1.9389838 -1.560987,-3.4999708 -3.499971,-3.4999708 -0.09098,0 -0.180032,0.00692 -0.269228,0.013679 v -0.013679 z"/>
 <rect style="fill:#99c1f1" width="7" height="7" x="23" y="9"/>
 <rect style="fill:#3584e4" width="7" height="7" x="23" y="16"/>
 <path style="fill:#b4d6ff" d="m 12.230801,1.9999999 v 0.013679 c 0.0892,-0.00676 0.178245,-0.013679 0.269228,-0.013679 z m 0.269228,0 c 1.938984,0 3.499971,1.560987 3.499971,3.4999708 0,8.1665983 0,-4.66662775 0,3.4999708 h 6.999942 c 0,-8.16659855 0,4.6666275 0,-3.4999708 0,-1.9389838 -1.560987,-3.4999708 -3.499971,-3.4999708 -0.09098,0 -0.180033,0.00692 -0.269228,0.013679 v -0.013679 z"/>
 <rect style="fill:#1c71d8" width="7" height="7" x="16" y="9"/>
 <path style="fill:#3584e4" d="m 5.230859,1.9999999 v 0.013679 c 0.089196,-0.00676 0.1782457,-0.013679 0.2692286,-0.013679 z m 0.2692286,0 c 1.9389839,0 3.4999709,1.560987 3.4999709,3.4999708 0,8.1665983 0,-4.66662775 0,3.4999708 H 16 c 0,-8.16659855 0,4.6666275 0,-3.4999708 0,-1.9389838 -1.560987,-3.4999708 -3.499971,-3.4999708 -0.09098,0 -0.180033,0.00692 -0.269228,0.013679 v -0.013679 z"/>
 <rect style="fill:#99c1f1" width="7" height="7" x="9" y="9"/>
 <rect style="fill:#3584e4" width="7" height="7" x="9" y="16"/>
 <rect style="fill:#b4d6ff" width="7" height="7" x="16" y="16"/>
 <path style="fill:#99c1f1" d="M 22.999942,22.999825 V 27 30 h 2 v -3 h 2 v 3 h 2 v -3 h 0.999941 v -4.000175 z"/>
 <path style="fill:#1c71d8" d="M 16,22.999825 V 27 30 h 2.000001 v -3 h 2 v 3 H 22 v -3 h 0.999942 v -4.000175 z"/>
 <path style="fill:#99c1f1" d="M 9.0000585,22.999825 V 26.500029 30 h 2.0000005 v -3 h 2 v 3 h 2 V 27 H 16 v -4.000175 z"/>
 <path style="fill:#f4f4f7;opacity:0.2" d="M 5.2304688 2 L 5.2304688 2.0136719 C 5.3196648 2.0069119 5.4090171 2 5.5 2 L 5.2304688 2 z M 5.5 2 C 6.4559507 2 7.3168271 2.3829136 7.9472656 3 L 12.230469 3 L 12.5 3 L 19.230469 3 L 19.5 3 L 26.230469 3 L 26.230469 3.0136719 C 26.319665 3.0069099 26.40902 3 26.5 3 C 28.438984 3 30 4.5610162 30 6.5 L 30 5.5 C 30 3.5610162 28.438984 2 26.5 2 C 26.40902 2 26.319665 2.0069129 26.230469 2.0136719 L 26.230469 2 L 19.5 2 L 19.230469 2 L 12.5 2 L 12.230469 2 L 5.5 2 z M 9 9 L 9 10 L 16 10 L 16 9 L 9 9 z M 23 9 L 23 10 L 30 10 L 30 9 L 23 9 z M 16 16 L 16 17 L 23 17 L 23 16 L 16 16 z M 9 23 L 9 24 L 16 24 L 16 23 L 9 23 z M 23 23 L 23 24 L 30 24 L 30 23 L 23 23 z"/>
 <path style="opacity:0.2" d="M 16 9 L 16 10 L 23 10 L 23 9 L 16 9 z M 9 16 L 9 17 L 16 17 L 16 16 L 9 16 z M 23 16 L 23 17 L 30 17 L 30 16 L 23 16 z M 16 23 L 16 24 L 23 24 L 23 23 L 16 23 z M 4 25 L 4 26 L 6 26 L 6 25 L 4 25 z M 8 25 L 8 26 L 9 26 L 9 25 L 8 25 z M 11 27 L 11 28 L 13 28 L 13 27 L 11 27 z M 15 27 L 15 28 L 16 28 L 16 27 L 15 27 z M 18 27 L 18 28 L 20 28 L 20 27 L 18 27 z M 22 27 L 22 28 L 23 28 L 23 27 L 22 27 z M 25 27 L 25 28 L 27 28 L 27 27 L 25 27 z M 29 27 L 29 28 L 30 28 L 30 27 L 29 27 z M 2 28 L 2 29 L 4 29 L 4 28 L 2 28 z M 6 28 L 6 29 L 8 29 L 8 28 L 6 28 z M 9 30 L 9 31 L 11 31 L 11 30 L 9 30 z M 13 30 L 13 31 L 15 31 L 15 30 L 13 30 z M 16 30 L 16 31 L 18 31 L 18 30 L 16 30 z M 20 30 L 20 31 L 22 31 L 22 30 L 20 30 z M 23 30 L 23 31 L 25 31 L 25 30 L 23 30 z M 27 30 L 27 31 L 29 31 L 29 30 L 27 30 z"/>
</svg>

<svg xmlns="http://www.w3.org/2000/svg" width="32" height="32" version="1"><path style="fill:#1a5fb4" d="M5.5 2A3.492 3.492 0 0 0 2 5.5V28h2v-3h2v3h2v-3h1V5.5C9 3.561 7.44 2 5.5 2z"/><path style="fill:#3584e4" d="M19.23 2v.014c.09-.007.179-.014.27-.014zm.27 0C21.439 2 23 3.561 23 5.5V9h7V5.5C30 3.561 28.439 2 26.5 2c-.091 0-.18.007-.27.014V2z"/><path style="fill:#99c1f1" d="M23 9h7v7h-7z"/><path style="fill:#3584e4" d="M23 16h7v7h-7z"/><path style="fill:#b4d6ff" d="M12.23 2v.014c.09-.007.179-.014.27-.014zm.27 0C14.439 2 16 3.561 16 5.5V9h7V5.5C23 3.561 21.439 2 19.5 2c-.091 0-.18.007-.27.014V2z"/><path style="fill:#1c71d8" d="M16 9h7v7h-7z"/><path style="fill:#3584e4" d="M5.23 2v.014C5.32 2.007 5.41 2 5.5 2zm.27 0C7.44 2 9 3.561 9 5.5V9h7V5.5C16 3.561 14.439 2 12.5 2c-.091 0-.18.007-.27.014V2z"/><path style="fill:#99c1f1" d="M9 9h7v7H9z"/><path style="fill:#3584e4" d="M9 16h7v7H9z"/><path style="fill:#b4d6ff" d="M16 16h7v7h-7z"/><path style="fill:#99c1f1" d="M23 23v7h2v-3h2v3h2v-3h1v-4z"/><path style="fill:#1c71d8" d="M16 23v7h2v-3h2v3h2v-3h1v-4z"/><path style="fill:#99c1f1" d="M9 23v7h2v-3h2v3h2v-3h1v-4z"/><path style="fill:#f4f4f7;opacity:.2" d="M5.23 2v.014C5.32 2.007 5.41 2 5.5 2h-.27zm.27 0c.956 0 1.817.383 2.447 1H26.23v.014c.09-.007.179-.014.27-.014C28.439 3 30 4.561 30 6.5v-1C30 3.561 28.439 2 26.5 2c-.091 0-.18.007-.27.014V2H5.5zM9 9v1h7V9H9zm14 0v1h7V9h-7zm-7 7v1h7v-1h-7zm-7 7v1h7v-1H9zm14 0v1h7v-1h-7z"/><path style="opacity:.2" d="M16 9v1h7V9h-7zm-7 7v1h7v-1H9zm14 0v1h7v-1h-7zm-7 7v1h7v-1h-7zM4 25v1h2v-1H4zm4 0v1h1v-1H8zm3 2v1h2v-1h-2zm4 0v1h1v-1h-1zm3 0v1h2v-1h-2zm4 0v1h1v-1h-1zm3 0v1h2v-1h-2zm4 0v1h1v-1h-1zM2 28v1h2v-1H2zm4 0v1h2v-1H6zm3 2v1h2v-1H9zm4 0v1h2v-1h-2zm3 0v1h2v-1h-2zm4 0v1h2v-1h-2zm3 0v1h2v-1h-2zm4 0v1h2v-1h-2z"/></svg>
